X:153
T:Castle Bar. JJo4.153
B:J.Johnson Choice Collection Vol 4, 1748
Z:vmp.Anne Wride 2014 www.village-music-project.org.uk
M:6/8
Q:3/8=100
L:1/8
K:F
F2c A/B/cA | GEG B2G | A/B/cB AGF | GEC F3 ||
f3 fga | gec d3 | def cAF | GEG B2d |
cAF B2G | cAF B2d | cAF B2A GFE F3 ||
fed cBA | fed cBA | fed cBA | GEG B2d |
fed cBA | Bcd efg | fed cBA | GEG B2 d||
cAF B2G | cAF B2d | cAF B2A | GFE F3|]
W:Easch strain twice
W:First Cu. foot it and cast off, that again below the 3d. Cu. Lead to the Top, foot it and cast off.
W:Lead thro' the Bottom and then Top and cast off all 6 hands round, that back again. 1st Cu. Back to Back and turn
